X:1
T:Arie antiche
T:Spesso vibra per suo gioco,  dell'opera La caduta de' decemviri
T:Spesso vibra per suo gioco.
T:Alessandro Scarlatti (1660-1725) Alessandro Parisotti (1853-1913)
T:Canzonetta 
T:High voices Dell'opera La caduta de' decemviri (1697) Silvio Stampiglia (1664–1725)
T:Creative Commons copyright waiver (CC0 1.0 Universal)
T:Creative Commons copyright waiver (CC0 1.0 Universal)
T:Creative Commons copyright waiver (CC0 1.0 Universal)
T:Creative Commons copyright waiver (CC0 1.0 Universal)
T:Creative Commons copyright waiver (CC0 1.0 Universal)
T:Creative Commons copyright waiver (CC0 1.0 Universal)
T:Creative Commons copyright waiver (CC0 1.0 Universal)
C:Alessandro Scarlatti (1659-1725)
Z:Silvio Stampiglia (1664–1725)
Z:Creative Commons copyright waiver (CC0 1.0 Universal)
%%score ( 1 2 ) { ( 3 5 6 ) | 4 }
L:1/8
Q:3/8=126
M:12/8
K:C
V:1 treble nm="Voice." snm="	"
V:2 treble 
V:3 treble nm="Piano."
V:5 treble 
V:6 treble 
V:4 bass 
V:1
"^Allegro.  (.)" z6"^con grazia"!f! (AB)A (^GAG) | (ABA) E3 (ABA) (^GAG) | %2
w: Spes- * * so _ _|vi- * * bra per _ _ suo _ _|
 (ABA) E3!f! (cdc) (BcB) | (cdc) G3 (cdc) (BcB) | (cdc) G3!p! (cdc) (cdc) | %5
w: gio- * * co il _ _ ben- * *|da- * * to par- * * go- * *|let- * * to stra- * * li _ _|
!>(! !>!c3 B2 B!>)! (BcB) (BcB) |!>(! B3 A3!>)!!f![Q:3/8=130] (!>!dcB) (!>!dcB) | %7
w: d'o- ro in u- * * mil _ _|pet- to, stral * * di _ _|
 c3- c[Q:1/4=170]"^rall." B!p! A (^G2 A (EAG) | %8
w: fer- * ro in no- bil co- * *|
 A3)[Q:1/4=190]"^a tempo." z2!f! z (!>!dcB) (!>!dcB) | %9
w: re, stral _ _ di _ _|
 c3-[Q:3/8=110] c B A[Q:1/4=150]"^rall." (^G2 A (EAG) |[Q:3/8=144] A3) z2 z z6 | z12 | z12 | %13
w: fer- * ro in no- bil- co- * *|re.~|||
 z6!p! (E^FE) (^DED) | E3 B,2 B (E^FE) (^DED) | E3 B,3 (GAG) (^FGF) | G3 D2 .d (GAG) (^FGF) | %17
w: Poi _ _ lan- * *|guen- do in mez- * * zoal _ _|fo- co del _ _ di- * *|ver- so ac- ce- * * so _ _|
 G3 D3 (!>!BcB) (BcB) |!>(! B3!>)! A3"^cresc." (ABA) (ABA) | %19
w: stra- le per _ _ og- * *|get- to non _ _ e- * *|
!>(! A3!>)! G3!f![Q:3/8=136] (!>!c3 c2) ^F | !>!B3- B2 E (!>!A3 A2) ^D | %21
w: gua- le que- * sto|man- * ca, que- * sto|
[Q:3/8=144]!<(! G3- G2 A!<)!!>(! B2 E (^DE^F) | E3!>)! z2[Q:3/8=136] z!pp! c3- c2 ^F | %23
w: man- * cae quel vien me- * *|no, que- * sto|
 B3- B2 E A3- A2 ^D |[Q:3/8=140] G3- G2 A B2[Q:1/4=180]"^rit assai." E (^DE^F) | %25
w: man- * ca, que- * sto|man- * cae quel vien me- * *|
 E3 z2[Q:3/8=142] z z6 | z12 | z6!p![Q:3/8=144] (ABA) (^GAG) | (ABA) E3 (ABA) (^GAG) | %29
w: no.||Spes- * * so _ _|vi- * * bra per _ _ suo _ _|
 (ABA)!f! E3 (!>!cdc) (!>!BcB) | (!>!cdc) G3 (!>!cdc) (!>!BcB) | (!>!cdc) G3!p! (cdc) (cdc) | %32
w: gio- * * co il _ _ ben- * *|da- * * to par- * * go- * *|let- * * to stra- * * li _ _|
!f!!>(! (c3 B2) B!>)! (BcB) (BcB) |!>(! B3!>)! A3!f! (!>!dcB) (!>!dcB) | %34
w: d'o- ro in u- * * mil _ _|pet- to, stral _ _ di _ _|
 c3- c B!p! (A[Q:1/4=170]"^rall." ^G2 A (EAG) |[Q:1/4=200]"^a tempo." A3) z2 z!f! (!>!dcB) (dcB) | %36
w: fer- * ro in no- bil se- * *|no, stral _ _ di _ _|
[Q:3/8=114] c3- c B A!p! (^G2[Q:1/4=140]"^rall  assai." A (EAG) | A3) z2 z z6 |] %38
w: fer- * ro in no- bil se- * *|no.|
V:2
 x12 | x12 | x12 | x12 | x12 | x12 | x12 | x4 (BA) x6 | x12 | x4 (BA) x6 | x12 | x12 | x12 | x12 | %14
 x12 | x12 | x12 | x12 | x12 | x12 | x12 | x12 | x12 | x12 | x12 | x12 | x12 | x12 | x12 | x12 | %30
 x12 | x12 | x12 | x12 | x4 (BA) ^G2 x4 | x12 | x4 (BA) ^G2 x4 | x12 |] %38
V:3
 [CEA]3 z2 z !>!C3 !>![D^G]3 | [CA]3 z2 z !>![CEA]3 !>![DE^G]3 | %2
 [CEA]3 z2 z !>![Ec]3"_cresc." !>![FB]3 | [Ec]3 z2 z !>![EGc]3 !>![FGB]3 | [EGc]3 z2 z [Ec]3 z2 z | %5
!>(! [EGc]3 [DGB]2 z [DGB]3!>)! z2 z |!>(! [DGB]3 [D^FA]2 z!>)!!f! !>![E^Gd]3 z2 z | %7
 !>![EAc]3 z2 z!p! [B,E^G]2 [B,=FA] (A2 G) | [CEA]3{AB} (cBA)!f! !>![D^G]3 z2 z | %9
 [CA]3 z2 z!p! [B,E^G]2 [B,=FA] ([CE][CA][B,G]) | [CA]3 z2 z!f! (!>!dcB) (!>!dcB) | %11
 [EAc]3 z2 z!f! (!>!FE"_cresc."D) (!>!FED) | [G,CE]3 z2 z !>![G,A,F]3 !>![^G,B,E]3 | %13
 A,3 z2 z!p! [=G,-E]3 [A,^D]3 | [G,E]3 z2 z!<(! ([G,E]3 [A,^D]3!<)! | %15
 [G,E]3) z2 z ([B,=DG]3 [CD^F]3 | [B,DG]3) z2!<(! z ([B,DG]3 [CD^F]3!<)! | %17
 [B,DG]3) z2 z [DGB]3 z2 z |!>(! [DGB]3 [D^FA]2!>)! z [EAc]3 z2 z | %19
!>(! [EAc]3 [EGB]2!>)! z!f!!<(! [Ac]6!<)! |!<(! B6!<)!!<(! A6!<)! | %21
!<(! G3- G2 A!<)!!>(! [EB]3 ^D3 | [G,E]3!>)! z2 z!pp! E3 ^F3 | ^F3 E6 ^D3 | E6 [B,E]3 [A,^D]3 | %25
 [G,E]3 z2 z (!>![GB][^FA][EG]) (!>![GB][FA][EG]) | %26
 !arpeggio!!>![EGe]3 z2 z!p! !>![E^Fc]3 !>![^DFB]3 | E3 z2 z!f! !>![CA]3 !>![=D^G]3 | %28
 [CA]3 z2 z !>![CEA]3 !>![DE^G]3 | [CEA]3 z2 z"_cresc." !>![Ec]3 !>![FB]3 | %30
 [Ec]3 z2 z [EGc]3 [FGB]3 | [EGc]3 z2 z!p! [Ec]3 z2 z |!f!!>(! [EGc]3 [DGB]2!>)! z [DGB]3 z2 z | %33
!>(! [DGB]3!>)! [D^FA]3!f! [E^Gd]3 z2 z |!p! [EAc]3 z2 z [B,E^G]2 [B,=FA] (A2 G) | %35
 [CEA]3{AB} (cBA)!f! [D^G]3 z2 z | [CA]3 z2 z!p! [B,E^G]2 [B,=FA] ([CE][CA][B,G]) | %37
 [CEA]3 z2 z z6 |] %38
V:4
!f! A,,3 z2 z !>!A,,3 !>!B,,3 | A,,3 z2 z !>!A,,3 !>!B,,3 | A,,3 z2 z !>!A,,3 !>!G,,3 | %3
 C,3 z2 z !>!C,3 !>!D,3 | C,3 z2 z C,3 z2 z | G,3 z2 z G,,3 z2 z | D,3 z2 z !>!B,,3 z2 z | %7
 !>!A,,3 z2 z E,2 D, E,2 E,, |"^a tempo." A,,3 z2 z !>!B,,3 z2 z | A,,3 z2 z E,2 D, E,2 E,, | %10
 A,,3 z2 z !>!E,3 z2 z | !>!A,,3 z2 z !>!G,,3 z2 z | C,3 z2 z !>!D,3 !>!E,3 | A,,3 z2 z (E,3 ^F,3 | %14
 E,3) z2 z (E,3 ^F,3 | E,3) z2 z (G,,3 A,,3 | G,,3) z2 z (G,,3 A,,3 | G,,3) z2 z G,,3 z2 z | %18
 D,3 z2 z A,,3 z2 z | E,3 z2 z (A,,B,,C,) D,3 | (G,,A,,B,,) C,3 (^F,,G,,A,,) B,,3 | %21
 E,,3 C,3 G,,3 B,,3 | E,,3 z2 z (A,,B,,C,) D,3 | (G,,A,,B,,) C,3 (^F,,G,,A,,) B,,3 | %24
 E,,3 C,3 G,,3"^col canto" B,,3 | E,,3 z2 z E,3 z2 z | !>!E,,3 z2 z !>!A,,3 !>!B,,3 | %27
 E,,3 z2 z !>!A,,3 !>!B,,3 | A,,3 z2 z !>!A,,3 !>!B,,3 | A,,3 z2 z !>!A,,3 !>!=G,,3 | %30
 C,3 z2 z C,3 D,3 | C,3 z2 z C,3 z2 z | G,3 z2 z G,,3 z2 z | D,3 z2 z B,,3 z2 z | %34
 A,,3 z2 z E,2 D, E,2 E,, |"^a tempo." A,,3 z2 z B,,3 z2 z | A,,3 z2 z E,2 D, E,2 E,, | %37
 A,,3 z2 z z6 |] %38
V:5
 x12 | x12 | x12 | x12 | x12 | x12 | x12 | x9 [B,E]3 | x12 | x12 | x6 [E^G]6 | x6 [=G,B,]6 | x12 | %13
 x12 | x12 | x12 | x12 | x12 | x12 | x6 (CDE) ^F3 | (B,CD) E3 (A,B,^C) ^D3 | E6 x3 A,3 | %22
 x6 [A,C]6 | [G,B,]6 [^F,A,]6 | G,3- G,2 A, x6 | x12 | x12 | x12 | x12 | x12 | x12 | x12 | x12 | %33
 x12 | x9 [B,E]3 | x12 | x12 | x12 |] %38
V:6
 x12 | x12 | x12 | x12 | x12 | x12 | x12 | x12 | x12 | x12 | x12 | x12 | x12 | x12 | x12 | x12 | %16
 x12 | x12 | x12 | x12 | ^F3 E3 E3 ^D3 | x12 | x12 | x12 | x12 | x12 | x12 | x12 | x12 | x12 | %30
 x12 | x12 | x12 | x12 | x12 | x12 | x12 | x12 |] %38

